resources/svg/regular/horizontal-center.svg

<svg xmlns="http://www.w3.org/2000/svg" fill="currentColor" stroke="none" viewBox="0 0 24 24"><path d="M5.005 15.995L9.005 11.995 5.005 7.995 5.005 10.995 2.005 10.995 2.005 12.995 5.005 12.995zM19.005 10.995L19.005 7.995 15.005 11.995 19.005 15.995 19.005 12.995 19.933 12.995 22.005 12.995 22.005 10.995 19.933 10.995zM11.005 17.995H13.005V20.995H11.005zM11.005 12.995H13.005V15.995H11.005zM11.005 7.995H13.005V10.995000000000001H11.005zM11.005 2.995H13.005V5.995H11.005z"/></svg>

<svg xmlns="http://www.w3.org/2000/svg" fill="currentColor" stroke="none" viewBox="0 0 24 24"><path d="m5.005 15.995 4-4-4-4v3h-3v2h3zm14-5v-3l-4 4 4 4v-3h3v-2h-2.072zm-8 7h2v3h-2zm0-5h2v3h-2zm0-5h2v3h-2zm0-5h2v3h-2z"/></svg>
